src/assets/outline/Routing.svg

<svg width="24" height="24" viewBox="0 0 24 24"  xmlns="http://www.w3.org/2000/svg">
<path d="M5.47015 10.75C4.76015 10.75 4.04015 10.49 3.49015 9.96C1.65015 8.21 0.910155 6.3 1.34016 4.43C1.85016 2.23 3.78015 1.25 5.47015 1.25C7.16015 1.25 9.10016 2.24 9.60016 4.43C10.0302 6.3 9.28016 8.21 7.45015 9.96C6.90015 10.49 6.19016 10.75 5.47015 10.75ZM2.80015 4.77C2.42015 6.44 3.53016 7.92 4.53016 8.87C5.06016 9.38 5.89015 9.37 6.42016 8.87C7.42016 7.92 8.53016 6.44 8.14016 4.76C7.80016 3.28 6.49016 2.75 5.48015 2.75C4.46016 2.75 3.15015 3.28 2.80015 4.77Z" />
<path d="M5.50977 6.2002C4.95977 6.2002 4.50977 5.7502 4.50977 5.2002C4.50977 4.6502 4.94977 4.2002 5.50977 4.2002H5.51977C6.06977 4.2002 6.51977 4.6502 6.51977 5.2002C6.51977 5.7502 6.06977 6.2002 5.50977 6.2002Z" />
<path d="M18.4899 22.7502C17.7799 22.7502 17.0599 22.4902 16.4999 21.9602C14.6499 20.2102 13.8999 18.3002 14.3399 16.4202C14.8499 14.2302 16.7899 13.2402 18.4899 13.2402C20.1899 13.2402 22.1299 14.2302 22.6399 16.4202C23.0699 18.2902 22.3199 20.2102 20.4699 21.9502C19.9199 22.4902 19.2099 22.7502 18.4899 22.7502ZM18.4899 14.7502C17.4699 14.7502 16.1499 15.2802 15.7999 16.7702C15.4099 18.4402 16.5299 19.9302 17.5299 20.8802C18.0599 21.3902 18.8999 21.3902 19.4399 20.8802C20.4399 19.9302 21.5599 18.4502 21.1699 16.7802C20.8399 15.2802 19.5199 14.7502 18.4899 14.7502Z" />
<path d="M18.5298 18.2002C17.9798 18.2002 17.5298 17.7502 17.5298 17.2002C17.5298 16.6502 17.9698 16.2002 18.5298 16.2002H18.5398C19.0898 16.2002 19.5398 16.6502 19.5398 17.2002C19.5398 17.7502 19.0798 18.2002 18.5298 18.2002Z" />
<path d="M11.9999 19.75H9.31994C8.15994 19.75 7.14994 19.05 6.74994 17.97C6.33994 16.89 6.63994 15.7 7.50994 14.93L15.4999 7.94C15.9799 7.52 15.9899 6.95 15.8499 6.56C15.6999 6.17 15.3199 5.75 14.6799 5.75H11.9999C11.5899 5.75 11.2499 5.41 11.2499 5C11.2499 4.59 11.5899 4.25 11.9999 4.25H14.6799C15.8399 4.25 16.8499 4.95 17.2499 6.03C17.6599 7.11 17.3599 8.3 16.4899 9.07L8.49994 16.06C8.01994 16.48 8.00994 17.05 8.14994 17.44C8.29994 17.83 8.67994 18.25 9.31994 18.25H11.9999C12.4099 18.25 12.7499 18.59 12.7499 19C12.7499 19.41 12.4099 19.75 11.9999 19.75Z" />
<path d="M11.9999 19.75H9.31994C8.15994 19.75 7.14994 19.05 6.74994 17.97C6.33994 16.89 6.63994 15.7 7.50994 14.93L15.4999 7.94C15.9799 7.52 15.9899 6.95 15.8499 6.56C15.6999 6.17 15.3199 5.75 14.6799 5.75H11.9999C11.5899 5.75 11.2499 5.41 11.2499 5C11.2499 4.59 11.5899 4.25 11.9999 4.25H14.6799C15.8399 4.25 16.8499 4.95 17.2499 6.03C17.6599 7.11 17.3599 8.3 16.4899 9.07L8.49994 16.06C8.01994 16.48 8.00994 17.05 8.14994 17.44C8.29994 17.83 8.67994 18.25 9.31994 18.25H11.9999C12.4099 18.25 12.7499 18.59 12.7499 19C12.7499 19.41 12.4099 19.75 11.9999 19.75Z" />
</svg>

<?xml version="1.0" encoding="UTF-8"?>
<svg width="24" height="24" viewBox="0 0 24 24" xmlns="http://www.w3.org/2000/svg">
 <path d="m5.4702 10.75c-0.71 0-1.43-0.26-1.98-0.79-1.84-1.75-2.58-3.66-2.15-5.53 0.51-2.2 2.44-3.18 4.13-3.18s3.63 0.99 4.13 3.18c0.43004 1.87-0.32 3.78-2.15 5.53-0.55 0.53-1.26 0.79-1.98 0.79zm-2.67-5.98c-0.38 1.67 0.73001 3.15 1.73 4.1 0.53 0.51 1.36 0.5 1.89 0 1-0.95 2.11-2.43 1.72-4.11-0.34-1.48-1.65-2.01-2.66-2.01-1.02 0-2.33 0.53-2.68 2.02z"/>
 <path d="m5.5098 6.2002c-0.55 0-1-0.45-1-1s0.44-1 1-1h0.01c0.55 0 1 0.45 1 1s-0.45 1-1.01 1z"/>
 <path d="m18.49 22.75c-0.71 0-1.43-0.26-1.99-0.79-1.85-1.75-2.6-3.66-2.16-5.54 0.51-2.19 2.45-3.18 4.15-3.18s3.64 0.99 4.15 3.18c0.43 1.87-0.32 3.79-2.17 5.53-0.55 0.54-1.26 0.8-1.98 0.8zm0-8c-1.02 0-2.34 0.53-2.69 2.02-0.39 1.67 0.73 3.16 1.73 4.11 0.53 0.51 1.37 0.51 1.91 0 1-0.95 2.12-2.43 1.73-4.1-0.33-1.5-1.65-2.03-2.68-2.03z"/>
 <path d="m18.53 18.2c-0.55 0-1-0.45-1-1s0.44-1 1-1h0.01c0.55 0 1 0.45 1 1s-0.46 1-1.01 1z"/>
 <path d="m12 19.75h-2.68c-1.16 0-2.17-0.7-2.57-1.78-0.41-1.08-0.11-2.27 0.76-3.04l7.99-6.99c0.48-0.42 0.49-0.99 0.35-1.38-0.15-0.39-0.53-0.81-1.17-0.81h-2.68c-0.41 0-0.75-0.34-0.75-0.75s0.34-0.75 0.75-0.75h2.68c1.16 0 2.17 0.7 2.57 1.78 0.41 1.08 0.11 2.27-0.76 3.04l-7.99 6.99c-0.48 0.42-0.49 0.99-0.35 1.38 0.15 0.39 0.53 0.81 1.17 0.81h2.68c0.41 0 0.75 0.34 0.75 0.75s-0.34 0.75-0.75 0.75z"/>
 <path d="m12 19.75h-2.68c-1.16 0-2.17-0.7-2.57-1.78-0.41-1.08-0.11-2.27 0.76-3.04l7.99-6.99c0.48-0.42 0.49-0.99 0.35-1.38-0.15-0.39-0.53-0.81-1.17-0.81h-2.68c-0.41 0-0.75-0.34-0.75-0.75s0.34-0.75 0.75-0.75h2.68c1.16 0 2.17 0.7 2.57 1.78 0.41 1.08 0.11 2.27-0.76 3.04l-7.99 6.99c-0.48 0.42-0.49 0.99-0.35 1.38 0.15 0.39 0.53 0.81 1.17 0.81h2.68c0.41 0 0.75 0.34 0.75 0.75s-0.34 0.75-0.75 0.75z"/>
</svg>
